X:441
T: BEI WATERLOO DA FIEL DER ERSTE SCHUSS
N: E0359
O: Europa, Mitteleuropa, Deutschland, Schleswig - Holstein
R: historisches Lied, Krieg gegen Napoleon (1815)
M: 4/4
L: 1/8
K: C
G,2 | C2G,2E,2G,2 | C4
A,4 | G,2FFEEDD | C4z2
C2 | D2DDB,B,G,G, | C2G,2C2
C2 | D2DDB,B,G,G, | C2G,2C2
C2 | A,2A,A,A,CB,A, | G,3CC3
E | EDFDC2B,2 | C4z2

@@@ Tune index: 4091
